X:292
T:Ash Plant, The
O:england
M:4/4
L:1/8
K:G
B ~E3 BAGA|BE{A}EF ~G3A|B ~E3 BA (3Bcd|gedB (3ABA GA|B ~E3 BAGA|
BE{A}EF ~G3A|~B3A (3Bcd ef|gedB (3ABA GA|| B2 eB gBeB|
{c}B2 dB (3ABA GA|B2 eB gBeB|{ga}gedB (3ABA GA|B2 eB gBeB|
{c} B2 dB (3ABA GA|(3Bcd ef ~g3 e|{a}gedB|(3ABA GA|


